icons/1_Primary/Tresorit.svg

<svg width="1024" height="1024" fill="none" xmlns="http://www.w3.org/2000/svg"><g clip-path="url(#a)"><path d="M512 1024c282.77 0 512-229.23 512-512S794.77 0 512 0 0 229.23 0 512s229.23 512 512 512Z" fill="#728DBE"/><path d="M512 241.92 278.75 377v270L512 782.08 745.25 647V377L512 241.92ZM327.86 405.27 512 298.67l80.44 46.56-264.58 152v-91.96Zm368.28 213.45L512 725.33 327.86 618.72v-64.86l313.69-180.2 54.6 31.61-.01 213.45Z" fill="#fff"/></g><defs><clipPath id="a"><path fill="#fff" d="M0 0h1024v1024H0z"/></clipPath></defs></svg>

<svg width="1024" height="1024" viewBox="0 0 1024 1024" fill="none" xmlns="http://www.w3.org/2000/svg">
<g clip-path="url(#clip0_2_3726)">
<path d="M512 1024C794.77 1024 1024 794.77 1024 512C1024 229.23 794.77 0 512 0C229.23 0 0 229.23 0 512C0 794.77 229.23 1024 512 1024Z" fill="#728DBE"/>
<path d="M512 241.92L278.75 377V647L512 782.08L745.25 647V377L512 241.92ZM327.86 405.27L512 298.67L592.44 345.23L327.86 497.23V405.27ZM696.14 618.72L512 725.33L327.86 618.72V553.86L641.55 373.66L696.15 405.27L696.14 618.72Z" fill="white"/>
</g>
<defs>
<clipPath id="clip0_2_3726">
<rect width="1024" height="1024" fill="white"/>
</clipPath>
</defs>
</svg>
